X: 28028
T: Moving In Old Decency
R: reel
M: 4/4
K: Eminor
|Beed Beed|Beed B2 AG|FAdA FADA|(3FGA de dBAF|
Beed Beed|Beed B2 AF|G3F GBdB|AGFG E3A:|
Beed e3d|(3Bcd ef gfec|d3e dA A2|(3Bcd ef gfed|
Beed e3d|(3Bcd ef g3z|G3F GBdB|AGFG E3A:|

